;FLAVOR:Marlin
;TIME:17543
;Filament used: 8.80333m
;Layer height: 0.1
;Generated with Cura_SteamEngine 3.2.1
M82 ;absolute extrusion mode
G21 ; set units to millimeters
G90 ; use absolute positioning
M82 ; absolute extrusion mode
M104 S205 ; set extruder temp
M140 S55 ; set bed temp
M190 S55 ; wait for bed temp
M109 S205 ; wait for extruder temp
G28 W ; home all without mesh bed level
G80 ; mesh bed leveling
G92 E0.0 ; reset extruder distance position
G1 Y-3.0 F1000.0 ; go outside print area
G1 X60.0 E9.0 F1000.0 ; intro line
G1 X100.0 E21.5 F1000.0 ; intro line
G92 E0.0 ; reset extruder distance position
;LAYER_COUNT:30
;LAYER:0
M107
G0 F3600 X76.943 Y21.939 Z0.15
;TYPE:SKIRT
G1 F1800 X77.123 Y21.466 E0.01262
G1 X77.375 Y21.028 E0.02523
G1 X77.693 Y20.635 E0.03784
G1 X78.069 Y20.297 E0.05045
G1 X78.493 Y20.022 E0.06306
G1 X78.956 Y19.818 E0.07568
G1 X79.444 Y19.689 E0.08827
G1 X80.014 Y19.638 E0.10255
G1 X217.198 Y19.643 E3.52462
G1 X217.702 Y19.683 E3.53723
G1 X218.194 Y19.802 E3.54985
G1 X218.66 Y19.997 E3.56246
G1 X218.899 Y20.133 E3.56932
G1 X219.428 Y20.465 E3.58489
G1 X219.834 Y20.766 E3.5975
G1 X220.187 Y21.128 E3.61011
G1 X220.478 Y21.541 E3.62272
G1 X220.645 Y21.861 E3.63172
G1 X220.722 Y22.032 E3.6364
G1 X220.892 Y22.508 E3.64901
G1 X220.974 Y22.906 E3.65914
G1 X221.955 Y29.98 E3.8373
G1 X223.033 Y35.338 E3.97363
G1 X223.679 Y37.965 E4.04111
G1 X225.214 Y43.234 E4.17801
G1 X227.049 Y48.419 E4.31521
G1 X229.159 Y53.455 E4.45142
G1 X231.563 Y58.391 E4.58837
G1 X233.541 Y62.009 E4.69123
G1 X233.748 Y62.471 E4.70386
G1 X233.879 Y62.959 E4.71647
G1 X233.933 Y63.541 E4.73105
G1 X233.999 Y131.02 E6.41432
G1 X234.308 Y136.484 E6.55083
G1 X234.927 Y141.939 E6.68778
G1 X235.848 Y147.319 E6.82394
G1 X237.08 Y152.676 E6.96106
G1 X237.798 Y155.286 E7.02859
G1 X239.477 Y160.509 E7.16544
G1 X241.444 Y165.613 E7.30189
G1 X244.068 Y171.37 E7.45971
G1 X244.24 Y171.845 E7.47231
G1 X244.336 Y172.341 E7.48491
G1 X244.356 Y172.697 E7.49381
G1 X244.356 Y190.347 E7.93409
G1 X244.316 Y190.851 E7.9467
G1 X244.197 Y191.342 E7.9593
G1 X244.003 Y191.809 E7.97192
G1 X243.737 Y192.239 E7.98453
G1 X243.407 Y192.622 E7.99714
G1 X243.02 Y192.948 E8.00977
G1 X242.587 Y193.209 E8.02238
G1 X242.119 Y193.399 E8.03498
G1 X241.626 Y193.512 E8.04759
G1 X241.156 Y193.547 E8.05935
G1 X61.175 Y193.547 E12.54899
G1 X60.671 Y193.507 E12.56161
G1 X60.18 Y193.388 E12.57421
G1 X59.713 Y193.194 E12.58682
G1 X59.283 Y192.928 E12.59944
G1 X58.9 Y192.598 E12.61205
G1 X58.574 Y192.211 E12.62467
G1 X58.313 Y191.778 E12.63728
G1 X58.123 Y191.31 E12.64988
G1 X58.01 Y190.817 E12.6625
G1 X57.975 Y190.347 E12.67425
G1 X57.977 Y172.695 E13.11459
G1 X58.017 Y172.191 E13.1272
G1 X58.217 Y171.48 E13.14562
G1 X61 Y164.7 E13.32844
G1 X61.884 Y162.185 E13.39494
G1 X63.488 Y156.932 E13.53195
G1 X64.791 Y151.604 E13.66878
G1 X65.19 Y149.66 E13.71828
G1 X65.331 Y149.175 E13.73088
G1 X65.546 Y148.717 E13.7435
G1 X65.982 Y148.124 E13.76186
G1 X68.139 Y145.806 E13.84085
G1 X71.709 Y141.611 E13.97825
G1 X75.013 Y137.25 E14.11474
G1 X78.066 Y132.711 E14.25119
G1 X80.864 Y127.994 E14.388
G1 X83.383 Y123.142 E14.52437
G1 X85.639 Y118.12 E14.66171
G1 X86.653 Y115.585 E14.72982
G1 X87.58 Y113.051 E14.79712
G1 X89.25 Y107.825 E14.93398
G1 X90.629 Y102.478 E15.07173
G1 X91.2 Y99.805 E15.13991
G1 X91.681 Y97.183 E15.20641
G1 X92.448 Y91.721 E15.34399
G1 X92.9 Y86.268 E15.48049
G1 X93.044 Y80.8 E15.61693
G1 X92.879 Y75.314 E15.75384
G1 X92.403 Y69.862 E15.89036
G1 X91.622 Y64.449 E16.02679
G1 X90.528 Y59.052 E16.16415
G1 X89.895 Y56.49 E16.22999
G1 X89.147 Y53.793 E16.2998
G1 X87.461 Y48.583 E16.4364
G1 X85.481 Y43.475 E16.57306
G1 X83.213 Y38.482 E16.70986
G1 X80.674 Y33.637 E16.84631
G1 X77.754 Y28.757 E16.98817
G1 X77.519 Y28.278 E17.00148
G1 X77.137 Y27.3 E17.02767
G1 X76.991 Y26.816 E17.04028
G1 X76.92 Y26.237 E17.05483
G1 X76.816 Y22.939 E17.13714
G1 X76.84 Y22.434 E17.14975
G1 X76.943 Y21.939 E17.16236
G1 F2100 E16.36236
G0 F3600 X88.647 Y148.301
G0 X88.986 Y149.542
G0 X88.525 Y161.818
G0 X88.597 Y161.887
;TYPE:WALL-INNER
G1 F2100 E17.16236
G1 F1800 X88.686 Y166.769 E17.28416
G1 X88.688 Y166.881 E17.28696
G1 X88.672 Y167.057 E17.29137
G1 X88.56 Y167.059 E17.29416
G1 X86.517 Y167.096 E17.34513
G1 X69.199 Y167.346 E17.77718
G1 X68.929 Y151.086 E18.18284
G1 X68.926 Y150.887 E18.1878
G1 X69.125 Y150.884 E18.19102
G1 X80.619 Y150.695 E18.47777
G1 X84.827 Y150.366 E18.58306
G1 X88.981 Y149.523 E18.6888
G1 X92.999 Y148.178 E18.79449
G1 X96.807 Y146.36 E18.89976
G1 X159.927 Y111.319 E20.70065
G1 X163.499 Y109.038 E20.80637
G1 X166.777 Y106.324 E20.91253
G1 X169.698 Y103.229 E21.01869
G1 X172.217 Y99.798 E21.12486
G1 X174.289 Y96.094 E21.23074
G1 X181.306 Y80.612 E21.65475
G1 X187.596 Y64.835 E22.07843
G1 X193.152 Y48.783 E22.50216
G1 X197.966 Y32.475 E22.92632
G1 X198.071 Y31.903 E22.94083
G1 X198.078 Y31.302 E22.95582
G1 X197.987 Y30.709 E22.97079
G1 X197.798 Y30.139 E22.98577
G1 X197.518 Y29.61 E23.0007
G1 X197.153 Y29.132 E23.0157
G1 X196.713 Y28.722 E23.0307
G1 X196.213 Y28.393 E23.04563
G1 X195.664 Y28.149 E23.06062
G1 X195.082 Y28.001 E23.0756
G1 X194.51 Y27.953 E23.08992
G1 X83.067 Y27.953 E25.86987
G1 X82.639 Y27.915 E25.88059
G1 X82.242 Y27.811 E25.89083
G1 X81.862 Y27.635 E25.90128
G1 X81.519 Y27.398 E25.91168
G1 X81.23 Y27.115 E25.92177
G1 X80.984 Y26.771 E25.93232
G1 X80.806 Y26.401 E25.94256
G1 X80.695 Y26.007 E25.95277
G1 X80.65 Y25.565 E25.96385
G1 X80.617 Y23.628 E26.01218
G1 X80.616 Y23.627 E26.01221
G1 X80.614 Y23.425 E26.01725
G1 X80.816 Y23.425 E26.0205
G1 X80.817 Y23.425 E26.02053
G1 X217.01 Y23.424 E29.41787
G1 X217.127 Y23.424 E29.42079
G1 X217.178 Y23.441 E29.42213
G1 X217.208 Y23.464 E29.42308
G1 X217.233 Y23.501 E29.42419
G1 X217.243 Y23.546 E29.42534
G1 X217.236 Y23.612 E29.427
G1 X217.208 Y23.725 E29.4299
G1 X214.43 Y34.901 E29.71717
G1 X211.271 Y46.133 E30.00822
G1 X207.77 Y57.278 E30.29963
G1 X203.94 Y68.29 E30.59047
G1 X199.769 Y79.201 E30.88185
G1 X195.281 Y89.96 E31.17265
G1 X190.46 Y100.589 E31.46379
G1 X188.19 Y105.238 E31.59285
G1 X185.564 Y110.568 E31.74106
G1 X184.992 Y111.574 E31.76993
G1 X184.311 Y112.548 E31.79958
G1 X183.584 Y113.402 E31.82756
G1 X182.782 Y114.189 E31.85558
G1 X181.681 Y115.067 E31.89071
G1 X180.498 Y115.816 E31.92564
G1 X138.98 Y138.921 E33.11088
G1 X97.847 Y161.746 E34.28434
G1 X95.021 Y161.796 E34.35484
G1 X91.004 Y161.84 E34.45506
G1 X88.597 Y161.887 E34.51511
G0 F3600 X89.004 Y162.279
;TYPE:WALL-OUTER
G1 F1800 X89.088 Y166.893 E34.63023
G1 X89.071 Y167.122 E34.63595
G1 X89.041 Y167.214 E34.63837
G1 X88.956 Y167.41 E34.6437
G1 X88.927 Y167.452 E34.64497
G1 X86.524 Y167.496 E34.70492
G1 X68.806 Y167.752 E35.14695
G1 X68.522 Y150.693 E35.57254
G1 X68.519 Y150.494 E35.57751
G1 X68.718 Y150.491 E35.58072
G1 X80.6 Y150.295 E35.87716
G1 X84.771 Y149.969 E35.98152
G1 X88.877 Y149.136 E36.08603
G1 X92.849 Y147.806 E36.19052
G1 X96.624 Y146.004 E36.29487
G1 X159.722 Y110.975 E38.09514
G1 X163.263 Y108.714 E38.19994
G1 X166.503 Y106.032 E38.30486
G1 X169.39 Y102.972 E38.4098
G1 X171.88 Y99.581 E38.51474
G1 X173.932 Y95.913 E38.61959
G1 X180.938 Y80.455 E39.04294
G1 X187.221 Y64.695 E39.46617
G1 X192.771 Y48.661 E39.88942
G1 X197.576 Y32.382 E40.31282
G1 X197.671 Y31.864 E40.32596
G1 X197.678 Y31.33 E40.33928
G1 X197.597 Y30.803 E40.35258
G1 X197.429 Y30.297 E40.36588
G1 X197.18 Y29.826 E40.37917
G1 X196.856 Y29.402 E40.39248
G1 X196.465 Y29.038 E40.40581
G1 X196.02 Y28.745 E40.4191
G1 X195.533 Y28.528 E40.4324
G1 X195.016 Y28.397 E40.4457
G1 X194.493 Y28.353 E40.4588
G1 X83.055 Y28.353 E43.23863
G1 X82.568 Y28.31 E43.25082
G1 X82.106 Y28.189 E43.26274
G1 X81.664 Y27.984 E43.27489
G1 X81.264 Y27.708 E43.28701
G1 X80.924 Y27.374 E43.2989
G1 X80.637 Y26.974 E43.31118
G1 X80.431 Y26.544 E43.32308
G1 X80.301 Y26.083 E43.33503
G1 X80.25 Y25.59 E43.34739
G1 X80.21 Y23.228 E43.40632
G1 X80.209 Y23.227 E43.40635
G1 X80.207 Y23.025 E43.41139
G1 X80.409 Y23.025 E43.41464
G1 X80.41 Y23.025 E43.41467
G1 X217.107 Y23.021 E46.82459
G1 X217.198 Y23.029 E46.82687
G1 X217.286 Y23.052 E46.82914
G1 X217.363 Y23.085 E46.83122
G1 X217.437 Y23.132 E46.83341
G1 X217.502 Y23.191 E46.8356
G1 X217.555 Y23.258 E46.83773
G1 X217.599 Y23.337 E46.83999
G1 X217.625 Y23.41 E46.84192
G1 X217.642 Y23.504 E46.8443
G1 X217.644 Y23.589 E46.84643
G1 X217.63 Y23.683 E46.8488
G1 X214.815 Y35.009 E47.13992
G1 X211.653 Y46.253 E47.43128
G1 X208.152 Y57.398 E47.72269
G1 X204.314 Y68.433 E48.01413
G1 X200.143 Y79.344 E48.30552
G1 X195.645 Y90.125 E48.59692
G1 X190.819 Y100.764 E48.88834
G1 X188.549 Y105.415 E49.01744
G1 X185.917 Y110.757 E49.16599
G1 X185.333 Y111.785 E49.19548
G1 X184.627 Y112.794 E49.2262
G1 X183.876 Y113.676 E49.2551
G1 X183.045 Y114.491 E49.28413
G1 X181.918 Y115.391 E49.32011
G1 X180.693 Y116.166 E49.35627
G1 X139.175 Y139.271 E50.54151
G1 X101.261 Y160.315 E51.6232
G1 X97.994 Y162.122 E51.71633
G1 X97.912 Y162.145 E51.71846
G1 X95.028 Y162.196 E51.79041
G1 X91.01 Y162.24 E51.89064
G1 X89.004 Y162.279 E51.94069
G0 F3600 X89.007 Y162.479
G0 X88.507 Y162.487
G0 X88.2 Y161.505
;TYPE:SKIN
G1 F1800 X88.295 Y166.673 E52.06963
G1 X86.51 Y166.706 E52.11417
G1 X69.583 Y166.95 E52.53646
G1 X69.322 Y151.271 E52.92762
G1 X80.637 Y151.085 E53.20992
G1 X84.881 Y150.753 E53.31611
G1 X89.082 Y149.901 E53.42304
G1 X93.145 Y148.54 E53.52992
G1 X96.986 Y146.707 E53.63609
G1 X160.126 Y111.654 E55.43756
G1 X163.729 Y109.354 E55.54419
G1 X167.044 Y106.609 E55.65155
G1 X169.998 Y103.479 E55.75891
G1 X172.546 Y100.009 E55.8663
G1 X174.638 Y96.27 E55.97318
G1 X181.665 Y80.764 E56.39784
G1 X187.961 Y64.971 E56.82195
G1 X193.524 Y48.902 E57.24614
G1 X198.346 Y32.565 E57.67104
G1 X198.461 Y31.94 E57.6869
G1 X198.468 Y31.275 E57.70349
G1 X198.367 Y30.617 E57.72009
G1 X198.158 Y29.985 E57.7367
G1 X197.848 Y29.399 E57.75323
G1 X197.443 Y28.869 E57.76987
G1 X196.955 Y28.414 E57.78652
G1 X196.4 Y28.05 E57.80307
G1 X195.792 Y27.779 E57.81968
G1 X195.147 Y27.615 E57.83628
G1 X194.526 Y27.563 E57.85183
G1 X83.08 Y27.563 E60.63186
G1 X82.707 Y27.53 E60.6412
G1 X82.371 Y27.442 E60.64986
G1 X82.062 Y27.299 E60.65836
G1 X81.769 Y27.096 E60.66725
G1 X81.529 Y26.861 E60.67563
G1 X81.317 Y26.566 E60.68469
G1 X81.174 Y26.267 E60.69296
G1 X81.079 Y25.931 E60.70167
G1 X81.04 Y25.543 E60.71139
G1 X81.01 Y23.815 E60.75451
G1 X216.784 Y23.814 E64.1414
G1 X214.054 Y34.796 E64.42369
G1 X210.899 Y46.016 E64.71443
G1 X207.402 Y57.15 E65.00554
G1 X203.576 Y68.151 E65.29608
G1 X199.409 Y79.051 E65.58718
G1 X194.926 Y89.799 E65.87768
G1 X190.109 Y100.418 E66.16855
G1 X187.839 Y105.067 E66.2976
G1 X185.217 Y110.391 E66.44564
G1 X184.667 Y111.357 E66.47337
G1 X183.999 Y112.313 E66.50246
G1 X183.299 Y113.135 E66.5294
G1 X182.521 Y113.898 E66.55658
G1 X181.459 Y114.745 E66.59047
G1 X180.295 Y115.482 E66.62483
G1 X138.791 Y138.58 E67.80968
G1 X97.743 Y161.358 E68.98072
G1 X95.014 Y161.406 E69.0488
G1 X90.998 Y161.45 E69.14899
G1 X88.2 Y161.505 E69.2188
G0 F3600 X70.029 Y166.761
G1 F1800 X69.754 Y166.486 E69.2285
G0 F3600 X69.744 Y165.911
G1 F1800 X70.587 Y166.754 E69.25824
G1 X70.657 Y166.824
G0 F3600 X71.144 Y166.745
G1 F1800 X69.735 Y165.336 E69.30795
G1 X69.665 Y165.266
G0 F3600 X69.725 Y164.76
G1 F1800 X71.702 Y166.737 E69.37769
G1 X71.772 Y166.807
G0 F3600 X72.26 Y166.73
G1 F1800 X69.716 Y164.185 E69.46745
G1 X69.646 Y164.115
G0 F3600 X69.706 Y163.61
G1 F1800 X72.817 Y166.721 E69.5772
G1 X72.887 Y166.791
G0 F3600 X73.375 Y166.713
G1 F1800 X69.697 Y163.035 E69.70695
G1 X69.627 Y162.965
G0 F3600 X69.687 Y162.459
G1 F1800 X73.933 Y166.706 E69.85676
G1 X74.003 Y166.776
G0 F3600 X74.49 Y166.697
G1 F1800 X69.678 Y161.885 E70.02652
G1 X69.608 Y161.815
G0 F3600 X69.668 Y161.309
G1 F1800 X75.048 Y166.689 E70.21631
G1 X75.118 Y166.759
G0 F3600 X75.605 Y166.681
G1 F1800 X69.659 Y160.734 E70.42609
G1 X69.589 Y160.664
G0 F3600 X69.649 Y160.158
G1 F1800 X76.163 Y166.673 E70.65591
G1 X76.233 Y166.743
G0 F3600 X76.721 Y166.665
G1 F1800 X69.64 Y159.584 E70.90571
G1 X69.57 Y159.514
G0 F3600 X69.63 Y159.008
G1 F1800 X77.278 Y166.657 E71.17553
G1 X77.348 Y166.727
G0 F3600 X77.836 Y166.649
G1 F1800 X69.621 Y158.433 E71.46535
G1 X69.551 Y158.363
G0 F3600 X69.611 Y157.858
G1 F1800 X78.394 Y166.641 E71.7752
G1 X78.464 Y166.711
G0 F3600 X78.952 Y166.633
G1 F1800 X69.601 Y157.283 E72.10506
G1 X69.531 Y157.213
G0 F3600 X69.592 Y156.707
G1 F1800 X79.509 Y166.625 E72.45493
G1 X79.579 Y166.695
G0 F3600 X80.067 Y166.617
G1 F1800 X69.582 Y156.132 E72.82481
G1 X69.512 Y156.062
G0 F3600 X69.572 Y155.557
G1 F1800 X80.625 Y166.609 E73.21472
G1 X80.695 Y166.679
G0 F3600 X81.182 Y166.601
G1 F1800 X69.563 Y154.982 E73.62461
G1 X69.493 Y154.912
G0 F3600 X69.553 Y154.406
G1 F1800 X81.74 Y166.593 E74.05454
G1 X81.81 Y166.663
G0 F3600 X82.298 Y166.585
G1 F1800 X69.544 Y153.831 E74.50447
G1 X69.474 Y153.761
G0 F3600 X69.534 Y153.256
G1 F1800 X82.855 Y166.577 E74.97441
G1 X82.925 Y166.647
G0 F3600 X83.413 Y166.568
G1 F1800 X69.524 Y152.68 E75.46436
G1 X69.454 Y152.61
G0 F3600 X69.515 Y152.105
G1 F1800 X83.971 Y166.561 E75.97434
G1 X84.041 Y166.631
G0 F3600 X84.528 Y166.553
G1 F1800 X69.505 Y151.53 E76.50431
G1 X69.435 Y151.46
G0 F3600 X69.98 Y151.439
G1 F1800 X85.086 Y166.544 E77.0372
G1 X85.156 Y166.614
G0 F3600 X85.644 Y166.537
G1 F1800 X70.537 Y151.43 E77.57014
G1 X70.467 Y151.36
G0 F3600 X71.094 Y151.421
G1 F1800 X86.201 Y166.529 E78.1031
G1 X86.271 Y166.599
G0 F3600 X86.758 Y166.52
G1 F1800 X71.651 Y151.412 E78.63606
G1 X71.581 Y151.342
G0 F3600 X72.207 Y151.403
G1 F1800 X87.314 Y166.51 E79.169
G1 X87.384 Y166.58
G0 F3600 X87.87 Y166.5
G1 F1800 X72.764 Y151.394 E79.7019
G1 X72.694 Y151.324
G0 F3600 X73.32 Y151.385
G1 F1800 X88.105 Y166.17 E80.22348
G1 X88.175 Y166.24
G0 F3600 X88.094 Y165.593
G1 F1800 X73.877 Y151.376 E80.72503
G1 X73.807 Y151.306
G0 F3600 X74.433 Y151.366
G1 F1800 X88.084 Y165.017 E81.2066
G1 X88.154 Y165.087
G0 F3600 X88.073 Y164.441
G1 F1800 X74.99 Y151.357 E81.66816
G1 X74.92 Y151.287
G0 F3600 X75.546 Y151.348
G1 F1800 X88.063 Y163.864 E82.10971
G1 X88.133 Y163.934
G0 F3600 X88.052 Y163.288
G1 F1800 X76.103 Y151.339 E82.53124
G1 X76.033 Y151.269
G0 F3600 X76.659 Y151.33
G1 F1800 X88.041 Y162.712 E82.93278
G1 X88.111 Y162.782
G0 F3600 X88.031 Y162.136
G1 F1800 X77.216 Y151.32 E83.31432
G1 X77.146 Y151.25
G0 F3600 X77.772 Y151.311
G1 F1800 X88.02 Y161.559 E83.67585
G1 X88.09 Y161.629
G0 F3600 X88.348 Y161.321
G1 F1800 X78.329 Y151.302 E84.02929
G1 X78.259 Y151.232
G0 F3600 X78.885 Y151.293
G1 F1800 X88.902 Y161.31 E84.38267
G1 X88.972 Y161.38
G0 F3600 X89.457 Y161.299
G1 F1800 X79.442 Y151.284 E84.73598
G1 X79.372 Y151.214
G0 F3600 X79.999 Y151.275
G1 F1800 X90.011 Y161.288 E85.0892
G1 X90.081 Y161.358
G0 F3600 X90.566 Y161.277
G1 F1800 X80.555 Y151.266 E85.44236
G1 X80.485 Y151.196
G0 F3600 X81.085 Y151.23
G1 F1800 X91.122 Y161.267 E85.79644
G1 X91.192 Y161.337
G0 F3600 X91.682 Y161.261
G1 F1800 X81.61 Y151.189 E86.15176
G1 X81.54 Y151.119
G0 F3600 X82.133 Y151.147
G1 F1800 X92.241 Y161.254 E86.50833
G1 X92.311 Y161.324
G0 F3600 X92.801 Y161.249
G1 F1800 X82.658 Y151.106 E86.86615
G1 X82.588 Y151.036
G0 F3600 X83.183 Y151.065
G1 F1800 X93.36 Y161.242 E87.22517
G1 X93.43 Y161.312
G0 F3600 X93.92 Y161.236
G1 F1800 X83.708 Y151.024 E87.58543
G1 X83.638 Y150.954
G0 F3600 X84.232 Y150.983
G1 F1800 X94.48 Y161.23 E87.94694
G1 X94.55 Y161.3
G0 F3600 X95.039 Y161.224
G1 F1800 X84.757 Y150.942 E88.30966
G1 X84.687 Y150.872
G0 F3600 X85.243 Y150.862
G1 F1800 X95.595 Y161.214 E88.67486
G1 X95.665 Y161.284
G0 F3600 X96.15 Y161.204
G1 F1800 X85.713 Y150.767 E89.04305
