;FLAVOR:Marlin
;TIME:21626
;Filament used: 10.9442m
;Layer height: 0.1
;Generated with Cura_SteamEngine 3.2.1
M82 ;absolute extrusion mode
G21 ; set units to millimeters
G90 ; use absolute positioning
M82 ; absolute extrusion mode
M104 S205 ; set extruder temp
M140 S55 ; set bed temp
M190 S55 ; wait for bed temp
M109 S205 ; wait for extruder temp
G28 W ; home all without mesh bed level
G80 ; mesh bed leveling
G92 E0.0 ; reset extruder distance position
G1 Y-3.0 F1000.0 ; go outside print area
G1 X60.0 E9.0 F1000.0 ; intro line
G1 X100.0 E21.5 F1000.0 ; intro line
G92 E0.0 ; reset extruder distance position
;LAYER_COUNT:30
;LAYER:0
M107
G0 F3600 X76.532 Y59.878 Z0.15
;TYPE:SKIRT
G1 F1800 X77.261 Y58.967 E0.02911
G1 X77.434 Y58.768 E0.03568
G1 X78.448 Y57.695 E0.07251
G1 X78.717 Y57.442 E0.08172
G1 X80.279 Y56.131 E0.13259
G1 X80.544 Y55.931 E0.14087
G1 X124.968 Y25.898 E1.47852
G1 X124.977 Y25.892 E1.47878
G1 X154.058 Y6.382 E2.35234
G1 X154.499 Y6.134 E2.36496
G1 X154.925 Y5.973 E2.37632
G1 X155.293 Y5.863 E2.3859
G1 X155.787 Y5.757 E2.39851
G1 X156.194 Y5.729 E2.40868
G1 X160.372 Y5.71 E2.51291
G1 X160.877 Y5.748 E2.52554
G1 X161.369 Y5.864 E2.53815
G1 X161.836 Y6.057 E2.55075
G1 X162.264 Y6.318 E2.56326
G1 X165.312 Y8.525 E2.65713
G1 X169.897 Y11.533 E2.79392
G1 X174.631 Y14.27 E2.93033
G1 X179.525 Y16.741 E3.06709
G1 X184.564 Y18.936 E3.20419
G1 X187.141 Y19.932 E3.27311
G1 X189.654 Y20.82 E3.3396
G1 X194.918 Y22.436 E3.47696
G1 X200.239 Y23.745 E3.61365
G1 X202.942 Y24.289 E3.68242
G1 X207.036 Y24.972 E3.78596
G1 X207.527 Y25.094 E3.79858
G1 X207.992 Y25.292 E3.81119
G1 X208.42 Y25.561 E3.8238
G1 X208.801 Y25.894 E3.83642
G1 X209.124 Y26.282 E3.84902
G1 X209.382 Y26.717 E3.86163
G1 X209.569 Y27.187 E3.87425
G1 X209.679 Y27.68 E3.88685
G1 X209.71 Y28.126 E3.898
G1 X209.721 Y47.477 E4.38072
G1 X209.665 Y48.077 E4.39575
G1 X209.554 Y48.661 E4.41058
G1 X209.42 Y49.148 E4.42318
G1 X209.269 Y49.5 E4.43273
G1 X208.8 Y50.433 E4.45878
G1 X208.454 Y50.977 E4.47486
G1 X205.619 Y54.573 E4.58909
G1 X204.012 Y56.754 E4.65667
G1 X200.94 Y61.321 E4.79397
G1 X198.142 Y66.036 E4.93073
G1 X195.626 Y70.882 E5.06694
G1 X193.375 Y75.892 E5.20395
G1 X191.417 Y80.999 E5.34039
G1 X189.749 Y86.217 E5.47704
G1 X188.372 Y91.549 E5.61441
G1 X187.815 Y94.169 E5.68123
G1 X186.896 Y99.593 E5.81846
G1 X186.287 Y105.033 E5.955
G1 X185.988 Y110.494 E6.09143
G1 X185.998 Y115.964 E6.22788
G1 X186.319 Y121.445 E6.36484
G1 X186.946 Y126.878 E6.50127
G1 X187.885 Y132.3 E6.63853
G1 X188.452 Y134.911 E6.70518
G1 X189.115 Y137.594 E6.77412
G1 X190.657 Y142.866 E6.91115
G1 X192.48 Y147.999 E7.04702
G1 X196.275 Y156.918 E7.28881
G1 X196.435 Y157.398 E7.30143
G1 X196.518 Y157.896 E7.31403
G1 X196.53 Y158.17 E7.32087
G1 X196.534 Y177.033 E7.79141
G1 X196.469 Y177.675 E7.80751
G1 X195.731 Y181.286 E7.89944
G1 X195.275 Y183.961 E7.96713
G1 X194.58 Y189.402 E8.10396
G1 X194.194 Y194.856 E8.24035
G1 X194.096 Y204.781 E8.48795
G1 X194.051 Y205.284 E8.50054
G1 X193.927 Y205.774 E8.51315
G1 X193.728 Y206.239 E8.52577
G1 X193.458 Y206.666 E8.53837
G1 X193.124 Y207.046 E8.55099
G1 X192.734 Y207.368 E8.56361
G1 X192.299 Y207.625 E8.57621
G1 X191.828 Y207.81 E8.58883
G1 X191.335 Y207.919 E8.60143
G1 X190.83 Y207.948 E8.61405
G1 X190.327 Y207.898 E8.62666
G1 X189.809 Y207.759 E8.64004
G1 X187.986 Y207.1 E8.68839
G1 X182.75 Y205.422 E8.82555
G1 X177.41 Y204.036 E8.96317
G1 X174.815 Y203.481 E9.02936
G1 X169.375 Y202.555 E9.16702
G1 X163.934 Y201.941 E9.3036
G1 X158.471 Y201.637 E9.44009
G1 X30.914 Y201.588 E12.62201
G1 X30.41 Y201.548 E12.63462
G1 X29.918 Y201.429 E12.64725
G1 X29.452 Y201.234 E12.65985
G1 X29.022 Y200.968 E12.67247
G1 X28.639 Y200.638 E12.68508
G1 X28.313 Y200.251 E12.6977
G1 X28.052 Y199.818 E12.71031
G1 X27.863 Y199.349 E12.72292
G1 X27.75 Y198.857 E12.73552
G1 X27.715 Y198.388 E12.74725
G1 X27.717 Y178.472 E13.24406
G1 X27.773 Y177.876 E13.25899
G1 X28.977 Y171.526 E13.42021
G1 X29.67 Y166.106 E13.55651
G1 X30.056 Y160.649 E13.69298
G1 X30.154 Y152.976 E13.8844
G1 X30.201 Y152.473 E13.897
G1 X30.326 Y151.983 E13.90962
G1 X30.504 Y151.562 E13.92102
G1 X33.585 Y145.526 E14.09007
G1 X35.752 Y140.545 E14.22557
G1 X38.896 Y131.92 E14.45457
G1 X38.918 Y131.864 E14.45607
G1 X42.504 Y122.574 E14.70448
G1 X42.542 Y122.479 E14.70703
G1 X46.434 Y113.281 E14.95617
G1 X46.475 Y113.188 E14.9587
G1 X50.649 Y104.134 E15.2074
G1 X50.693 Y104.042 E15.20994
G1 X55.139 Y95.158 E15.45776
G1 X55.186 Y95.068 E15.46029
G1 X59.934 Y86.287 E15.70931
G1 X59.984 Y86.198 E15.71185
G1 X64.988 Y77.608 E15.95984
G1 X65.041 Y77.521 E15.96238
G1 X70.35 Y69.039 E16.21199
G1 X70.408 Y68.949 E16.21466
G1 X76.377 Y60.089 E16.48115
G1 X76.532 Y59.878 E16.48768
G1 F2100 E15.68768
G0 F3600 X78.509 Y61.456
G0 X79.514 Y62.254
G0 X96.18 Y72.83
G0 X96.246 Y72.904
;TYPE:WALL-INNER
G1 F2100 E16.48768
G1 F1800 X93.05 Y76.143 E16.60119
G1 X90.314 Y79.761 E16.71434
G1 X83.256 Y91.051 E17.04648
G1 X76.723 Y102.635 E17.37823
G1 X70.719 Y114.505 E17.71005
G1 X65.261 Y126.632 E18.04179
G1 X60.367 Y138.965 E18.37277
G1 X60.174 Y139.372 E18.38401
G1 X59.937 Y139.708 E18.39427
G1 X59.635 Y140.007 E18.40487
G1 X59.3 Y140.24 E18.41505
G1 X58.924 Y140.414 E18.42538
G1 X58.514 Y140.524 E18.43597
G1 X58.088 Y140.561 E18.44664
G1 X40.152 Y140.561 E18.89405
G1 X40.151 Y140.561 E18.89408
G1 X39.87 Y140.561 E18.90109
G1 X39.964 Y140.296 E18.90524
G1 X42.728 Y132.479 E19.11206
G1 X46.333 Y123.211 E19.36013
G1 X50.233 Y114.057 E19.60834
G1 X54.422 Y105.032 E19.85653
G1 X58.896 Y96.146 E20.10471
G1 X63.652 Y87.405 E20.35294
G1 X68.682 Y78.821 E20.60112
G1 X73.983 Y70.401 E20.84932
G1 X79.252 Y62.583 E21.0845
G1 X79.455 Y62.297 E21.09324
G1 X80.228 Y61.326 E21.1242
G1 X81.183 Y60.318 E21.15884
G1 X82.039 Y59.555 E21.18745
G1 X83.208 Y58.679 E21.22389
G1 X127.096 Y29.048 E22.54483
G1 X155.957 Y9.646 E23.41233
G1 X156.067 Y9.586 E23.41546
G1 X156.193 Y9.538 E23.41882
G1 X156.315 Y9.51 E23.42195
G1 X156.468 Y9.497 E23.42578
G1 X159.791 Y9.5 E23.50867
G1 X159.791 Y29.705 E24.01268
G1 X129.935 Y49.795 E24.91036
G1 X99.823 Y70.126 E25.81669
G1 X96.246 Y72.904 E25.92966
G0 F3600 X96.512 Y73.204
;TYPE:WALL-OUTER
G1 F1800 X93.353 Y76.405 E26.04185
G1 X90.644 Y79.988 E26.1539
G1 X83.6 Y91.255 E26.48536
G1 X77.076 Y102.824 E26.81668
G1 X71.08 Y114.677 E27.14803
G1 X65.629 Y126.788 E27.47933
G1 X60.737 Y139.118 E27.81023
G1 X60.519 Y139.577 E27.8229
G1 X60.244 Y139.967 E27.83481
G1 X59.895 Y140.313 E27.84707
G1 X59.497 Y140.59 E27.85916
G1 X59.058 Y140.793 E27.87123
G1 X58.589 Y140.918 E27.88333
G1 X58.1 Y140.961 E27.89558
G1 X39.587 Y140.961 E28.35739
G1 X39.586 Y140.961 E28.35741
G1 X39.305 Y140.961 E28.36442
G1 X39.399 Y140.696 E28.36857
G1 X42.355 Y132.334 E28.58981
G1 X45.965 Y123.054 E28.8382
G1 X49.87 Y113.889 E29.08671
G1 X54.065 Y104.852 E29.33524
G1 X58.545 Y95.955 E29.58373
G1 X63.307 Y87.203 E29.83227
G1 X68.343 Y78.608 E30.08077
G1 X73.651 Y70.177 E30.32929
G1 X78.92 Y62.359 E30.56447
G1 X79.134 Y62.059 E30.57366
G1 X79.924 Y61.066 E30.60531
G1 X80.909 Y60.026 E30.64105
G1 X81.784 Y59.246 E30.67029
G1 X82.984 Y58.347 E30.70769
G1 X126.872 Y28.716 E32.02864
G1 X155.745 Y9.306 E32.8965
G1 X155.897 Y9.223 E32.90082
G1 X156.076 Y9.154 E32.9056
G1 X156.258 Y9.113 E32.91026
G1 X156.446 Y9.097 E32.91496
G1 X160.191 Y9.1 E33.00838
G1 X160.191 Y29.918 E33.52769
G1 X130.158 Y50.127 E34.43068
G1 X100.058 Y70.45 E35.33665
G1 X96.512 Y73.204 E35.44865
G0 F3600 X96.372 Y73.346
G0 X96.017 Y72.994
G0 X95.987 Y72.612
;TYPE:SKIN
G1 F1800 X92.754 Y75.887 E35.56345
G1 X89.992 Y79.539 E35.67767
G1 X82.921 Y90.852 E36.01046
G1 X76.379 Y102.451 E36.34265
G1 X70.367 Y114.337 E36.67491
G1 X64.902 Y126.48 E37.00709
G1 X60.01 Y138.806 E37.33789
G1 X59.832 Y139.182 E37.34827
G1 X59.643 Y139.45 E37.35645
G1 X59.383 Y139.707 E37.36557
G1 X59.108 Y139.899 E37.37393
G1 X58.784 Y140.048 E37.38283
G1 X58.445 Y140.139 E37.39159
G1 X58.079 Y140.171 E37.40075
G1 X40.421 Y140.171 E37.84123
G1 X43.108 Y132.576 E38.0422
G1 X46.692 Y123.363 E38.28879
G1 X50.586 Y114.221 E38.53667
G1 X54.756 Y105.237 E38.78374
G1 X59.239 Y96.333 E39.03241
G1 X63.989 Y87.602 E39.28035
G1 X69.012 Y79.029 E39.52821
G1 X74.307 Y70.619 E39.77612
G1 X79.57 Y62.809 E40.01105
G1 X79.767 Y62.531 E40.01955
G1 X80.519 Y61.587 E40.04965
G1 X81.466 Y60.587 E40.08401
G1 X82.282 Y59.86 E40.11127
G1 X83.434 Y58.997 E40.14718
G1 X127.314 Y29.371 E41.46789
G1 X156.15 Y9.986 E42.33464
G1 X156.232 Y9.941 E42.33697
G1 X156.312 Y9.911 E42.3391
G1 X156.378 Y9.896 E42.34079
G1 X156.479 Y9.887 E42.34332
G1 X159.401 Y9.89 E42.41621
G1 X159.401 Y29.497 E42.90531
G1 X129.717 Y49.471 E43.7978
G1 X99.595 Y69.81 E44.70445
G1 X95.987 Y72.612 E44.81841
G0 F3600 X94.305 Y74.598
G0 X40.759 Y139.753
G1 F1800 X40.995 Y139.99 E44.82675
G0 F3600 X41.56 Y139.99
G1 F1800 X40.906 Y139.336 E44.84982
G1 X40.836 Y139.266
G0 F3600 X41.054 Y138.918
G1 F1800 X42.126 Y139.99 E44.88764
G1 X42.196 Y140.06
G0 F3600 X42.692 Y139.99
G1 F1800 X41.202 Y138.5 E44.9402
G1 X41.132 Y138.43
G0 F3600 X41.35 Y138.082
G1 F1800 X43.257 Y139.99 E45.00749
G1 X43.327 Y140.06
G0 F3600 X43.823 Y139.99
G1 F1800 X41.497 Y137.664 E45.08955
G1 X41.427 Y137.594
G0 F3600 X41.645 Y137.246
G1 F1800 X44.389 Y139.99 E45.18635
G1 X44.459 Y140.06
G0 F3600 X44.955 Y139.99
G1 F1800 X41.793 Y136.828 E45.2979
G1 X41.723 Y136.758
G0 F3600 X41.941 Y136.41
G1 F1800 X45.52 Y139.99 E45.42418
G1 X45.59 Y140.06
G0 F3600 X46.086 Y139.99
G1 F1800 X42.089 Y135.992 E45.5652
G1 X42.019 Y135.922
G0 F3600 X42.237 Y135.575
G1 F1800 X46.652 Y139.99 E45.72095
G1 X46.722 Y140.06
G0 F3600 X47.217 Y139.99
G1 F1800 X42.385 Y135.157 E45.89143
G1 X42.315 Y135.087
G0 F3600 X42.533 Y134.739
G1 F1800 X47.783 Y139.99 E46.07666
G1 X47.853 Y140.06
G0 F3600 X48.349 Y139.99
G1 F1800 X42.68 Y134.322 E46.27663
G1 X42.61 Y134.252
G0 F3600 X42.828 Y133.904
G1 F1800 X48.914 Y139.99 E46.49133
G1 X48.984 Y140.06
G0 F3600 X49.48 Y139.99
G1 F1800 X42.976 Y133.486 E46.72077
G1 X42.906 Y133.416
G0 F3600 X43.124 Y133.068
G1 F1800 X50.046 Y139.99 E46.96497
G1 X50.116 Y140.06
G0 F3600 X50.611 Y139.99
G1 F1800 X43.271 Y132.649 E47.22392
G1 X43.201 Y132.579
G0 F3600 X43.429 Y132.242
G1 F1800 X51.177 Y139.99 E47.49725
G1 X51.247 Y140.06
G0 F3600 X51.743 Y139.99
G1 F1800 X43.588 Y131.835 E47.78494
G1 X43.518 Y131.765
G0 F3600 X43.746 Y131.427
G1 F1800 X52.308 Y139.99 E48.08701
G1 X52.378 Y140.06
G0 F3600 X52.874 Y139.99
G1 F1800 X43.904 Y131.02 E48.40345
G1 X43.834 Y130.95
G0 F3600 X44.063 Y130.613
G1 F1800 X53.44 Y139.99 E48.73425
G1 X53.51 Y140.06
G0 F3600 X54.005 Y139.99
G1 F1800 X44.221 Y130.205 E49.07942
G1 X44.151 Y130.135
G0 F3600 X44.38 Y129.798
G1 F1800 X54.571 Y139.99 E49.43896
G1 X54.641 Y140.06
G0 F3600 X55.137 Y139.99
G1 F1800 X44.538 Y129.391 E49.81286
G1 X44.468 Y129.321
G0 F3600 X44.696 Y128.984
G1 F1800 X55.703 Y139.99 E50.20115
G1 X55.773 Y140.06
G0 F3600 X56.268 Y139.99
G1 F1800 X44.855 Y128.576 E50.60379
G1 X44.785 Y128.506
G0 F3600 X45.013 Y128.169
G1 F1800 X56.834 Y139.99 E51.02081
G1 X56.904 Y140.06
G0 F3600 X57.4 Y139.99
G1 F1800 X45.172 Y127.762 E51.45218
G1 X45.102 Y127.692
G0 F3600 X45.33 Y127.354
G1 F1800 X57.965 Y139.99 E51.89794
G1 X58.035 Y140.06
G0 F3600 X58.482 Y139.941
G1 F1800 X45.488 Y126.947 E52.35633
G1 X45.418 Y126.877
G0 F3600 X45.647 Y126.54
G1 F1800 X58.901 Y139.794 E52.8239
G1 X58.971 Y139.864
G0 F3600 X59.25 Y139.577
G1 F1800 X45.805 Y126.133 E53.2982
G1 X45.735 Y126.063
G0 F3600 X45.964 Y125.725
G1 F1800 X59.532 Y139.294 E53.77686
G1 X59.602 Y139.364
G0 F3600 X59.745 Y138.941
G1 F1800 X46.122 Y125.318 E54.25745
G1 X46.052 Y125.248
G0 F3600 X46.28 Y124.911
G1 F1800 X59.918 Y138.548 E54.73855
G1 X59.988 Y138.618
G0 F3600 X60.078 Y138.143
G1 F1800 X46.439 Y124.503 E55.21972
G1 X46.369 Y124.433
G0 F3600 X46.597 Y124.096
G1 F1800 X60.239 Y137.738 E55.70098
G1 X60.309 Y137.808
G0 F3600 X60.4 Y137.333
G1 F1800 X46.756 Y123.689 E56.18231
G1 X46.686 Y123.619
G0 F3600 X46.918 Y123.286
G1 F1800 X60.56 Y136.928 E56.66356
G1 X60.63 Y136.998
G0 F3600 X60.722 Y136.523
G1 F1800 X47.087 Y122.889 E57.14456
G1 X47.017 Y122.819
G0 F3600 X47.256 Y122.492
G1 F1800 X60.882 Y136.118 E57.62525
G1 X60.952 Y136.188
G0 F3600 X61.043 Y135.713
G1 F1800 X47.425 Y122.096 E58.10565
G1 X47.355 Y122.026
G0 F3600 X47.594 Y121.699
G1 F1800 X61.204 Y135.309 E58.58578
G1 X61.274 Y135.379
G0 F3600 X61.364 Y134.903
G1 F1800 X47.763 Y121.302 E59.06559
G1 X47.693 Y121.232
G0 F3600 X47.932 Y120.906
G1 F1800 X61.525 Y134.498 E59.5451
G1 X61.595 Y134.568
G0 F3600 X61.686 Y134.094
G1 F1800 X48.101 Y120.509 E60.02435
G1 X48.031 Y120.439
G0 F3600 X48.27 Y120.112
G1 F1800 X61.847 Y133.689 E60.50331
G1 X61.917 Y133.759
G0 F3600 X62.007 Y133.283
G1 F1800 X48.439 Y119.716 E60.98194
G1 X48.369 Y119.646
G0 F3600 X48.608 Y119.319
G1 F1800 X62.168 Y132.879 E61.46031
G1 X62.238 Y132.949
G0 F3600 X62.329 Y132.474
G1 F1800 X48.777 Y118.922 E61.93839
G1 X48.707 Y118.852
G0 F3600 X48.946 Y118.525
G1 F1800 X62.489 Y132.069 E62.41618
G1 X62.559 Y132.139
G0 F3600 X62.651 Y131.664
G1 F1800 X49.115 Y118.129 E62.89368
G1 X49.045 Y118.059
G0 F3600 X49.284 Y117.732
G1 F1800 X62.811 Y131.259 E63.37088
G1 X62.881 Y131.329
G0 F3600 X62.972 Y130.854
G1 F1800 X49.453 Y117.335 E63.8478
G1 X49.383 Y117.265
G0 F3600 X49.622 Y116.939
G1 F1800 X63.133 Y130.449 E64.32442
G1 X63.203 Y130.519
G0 F3600 X63.293 Y130.044
G1 F1800 X49.791 Y116.542 E64.80074
G1 X49.721 Y116.472
G0 F3600 X49.96 Y116.145
G1 F1800 X63.454 Y129.639 E65.27677
G1 X63.524 Y129.709
G0 F3600 X63.615 Y129.235
G1 F1800 X50.129 Y115.749 E65.75253
G1 X50.059 Y115.679
G0 F3600 X50.298 Y115.352
G1 F1800 X63.776 Y128.829 E66.22798
G1 X63.846 Y128.899
G0 F3600 X63.937 Y128.425
G1 F1800 X50.467 Y114.955 E66.70317
G1 X50.397 Y114.885
G0 F3600 X50.636 Y114.559
G1 F1800 X64.097 Y128.02 E67.17805
G1 X64.167 Y128.09
G0 F3600 X64.258 Y127.615
G1 F1800 X50.809 Y114.165 E67.65252
G1 X50.739 Y114.095
G0 F3600 X50.988 Y113.779
G1 F1800 X64.419 Y127.21 E68.12633
G1 X64.489 Y127.28
G0 F3600 X64.58 Y126.805
G1 F1800 X51.167 Y113.393 E68.59949
G1 X51.097 Y113.323
G0 F3600 X51.347 Y113.006
G1 F1800 X64.741 Y126.4 E69.072
G1 X64.811 Y126.47
G0 F3600 X64.916 Y126.01
G1 F1800 X51.526 Y112.62 E69.54437
G1 X51.456 Y112.55
G0 F3600 X51.705 Y112.234
G1 F1800 X65.092 Y125.62 E70.01662
G1 X65.162 Y125.69
G0 F3600 X65.267 Y125.23
G1 F1800 X51.885 Y111.848 E70.4887
G1 X51.815 Y111.778
G0 F3600 X52.064 Y111.461
G1 F1800 X65.443 Y124.84 E70.96068
G1 X65.513 Y124.91
G0 F3600 X65.618 Y124.45
G1 F1800 X52.243 Y111.075 E71.43252
G1 X52.173 Y111.005
G0 F3600 X52.422 Y110.688
G1 F1800 X65.794 Y124.059 E71.90424
G1 X65.864 Y124.129
G0 F3600 X65.97 Y123.67
G1 F1800 X52.602 Y110.302 E72.37583
G1 X52.532 Y110.232
G0 F3600 X52.781 Y109.915
G1 F1800 X66.145 Y123.279 E72.84728
G1 X66.215 Y123.349
G0 F3600 X66.32 Y122.889
G1 F1800 X52.96 Y109.529 E73.31859
G1 X52.89 Y109.459
G0 F3600 X53.14 Y109.143
G1 F1800 X66.496 Y122.499 E73.78976
G1 X66.566 Y122.569
G0 F3600 X66.672 Y122.109
G1 F1800 X53.319 Y108.756 E74.26082
G1 X53.249 Y108.686
G0 F3600 X53.498 Y108.37
G1 F1800 X66.847 Y121.719 E74.73174
G1 X66.917 Y121.789
G0 F3600 X67.023 Y121.328
G1 F1800 X53.677 Y107.983 E75.20254
G1 X53.607 Y107.913
G0 F3600 X53.857 Y107.597
G1 F1800 X67.198 Y120.938 E75.67318
G1 X67.268 Y121.008
G0 F3600 X67.374 Y120.548
G1 F1800 X54.036 Y107.21 E76.14372
G1 X53.966 Y107.14
G0 F3600 X54.215 Y106.824
G1 F1800 X67.549 Y120.158 E76.61411
G1 X67.619 Y120.228
G0 F3600 X67.725 Y119.768
G1 F1800 X54.395 Y106.438 E77.08436
G1 X54.325 Y106.368
G0 F3600 X54.574 Y106.051
